img/svg/android-icon.svg

<svg width="44" height="44" fill="none" xmlns="http://www.w3.org/2000/svg"><rect width="44" height="44" rx="12" fill="#DCF2ED"/><g clip-path="url(#a)"><path d="M16 28c0 .55.45 1 1 1h1v3.5c0 .83.67 1.5 1.5 1.5s1.5-.67 1.5-1.5V29h2v3.5c0 .83.67 1.5 1.5 1.5s1.5-.67 1.5-1.5V29h1c.55 0 1-.45 1-1V18H16v10Zm-2.5-10c-.83 0-1.5.67-1.5 1.5v7c0 .83.67 1.5 1.5 1.5s1.5-.67 1.5-1.5v-7c0-.83-.67-1.5-1.5-1.5Zm17 0c-.83 0-1.5.67-1.5 1.5v7c0 .83.67 1.5 1.5 1.5s1.5-.67 1.5-1.5v-7c0-.83-.67-1.5-1.5-1.5Zm-4.97-5.84 1.3-1.3c.2-.2.2-.51 0-.71-.2-.2-.51-.2-.71 0l-1.48 1.48A5.84 5.84 0 0 0 22 11c-.96 0-1.86.23-2.66.63l-1.49-1.48c-.2-.2-.51-.2-.71 0-.2.2-.2.51 0 .71l1.31 1.31A5.983 5.983 0 0 0 16 17h12c0-1.99-.97-3.75-2.47-4.84ZM20 15h-1v-1h1v1Zm5 0h-1v-1h1v1Z" fill="#20484F"/></g><defs><clipPath id="a"><path fill="#fff" transform="translate(10 10)" d="M0 0h24v24H0z"/></clipPath></defs></svg>

<svg width="44" height="44" viewBox="0 0 44 44" fill="none" xmlns="http://www.w3.org/2000/svg">
<rect width="44" height="44" rx="12" fill="#DCF2ED"/>
<g clip-path="url(#clip0_211_1003)">
<path d="M16 28C16 28.55 16.45 29 17 29H18V32.5C18 33.33 18.67 34 19.5 34C20.33 34 21 33.33 21 32.5V29H23V32.5C23 33.33 23.67 34 24.5 34C25.33 34 26 33.33 26 32.5V29H27C27.55 29 28 28.55 28 28V18H16V28ZM13.5 18C12.67 18 12 18.67 12 19.5V26.5C12 27.33 12.67 28 13.5 28C14.33 28 15 27.33 15 26.5V19.5C15 18.67 14.33 18 13.5 18ZM30.5 18C29.67 18 29 18.67 29 19.5V26.5C29 27.33 29.67 28 30.5 28C31.33 28 32 27.33 32 26.5V19.5C32 18.67 31.33 18 30.5 18ZM25.53 12.16L26.83 10.86C27.03 10.66 27.03 10.35 26.83 10.15C26.63 9.95 26.32 9.95 26.12 10.15L24.64 11.63C23.85 11.23 22.95 11 22 11C21.04 11 20.14 11.23 19.34 11.63L17.85 10.15C17.65 9.95 17.34 9.95 17.14 10.15C16.94 10.35 16.94 10.66 17.14 10.86L18.45 12.17C16.97 13.26 16 15.01 16 17H28C28 15.01 27.03 13.25 25.53 12.16ZM20 15H19V14H20V15ZM25 15H24V14H25V15Z" fill="#20484F"/>
</g>
<defs>
<clipPath id="clip0_211_1003">
<rect width="24" height="24" fill="white" transform="translate(10 10)"/>
</clipPath>
</defs>
</svg>
